X: 1
T: Around The Fairy Fort
R: barndance
M: 4/4
L: 1/8
K: Dmaj
DE |F2 F2 FEDF |A2 A2 A2 FA |B2 B2 AFDE |F2 E2 E2 DE |
F2 F2 FEDF |A2 A2 A2 FA |dcBA BAFE |1 F2 D2 D2 DE :|2F2 D2 D2 A2 ||
|:d2 d2 d2 cd |e2 e2 e2 fe |defg agfe |f2 B2 B2 AB |
d2 d2 d2 cd |e2 e2 e2 fe |dcBA BAFE |F2 D2 D2 A2 :|
|:F2 DF A2 FA |B2 FB A2 DE |F2 DF A2 FA |B2 E2 E2 DE |
F2 DF A2 FA |B2 FB A2 FA |\dcBA BAFE |F2 D2 D4 :|


Tune 2177	Setting 15549

